!!!COM: Anon.
!!!OTL: It is My Own Fault
!!!MPN: Nakius [James Driver]
!!!ODT: <1918//
!!!MLC: Fort Berthold Reservation, North Dakota, United States of America
!! Song was recorded during either the summer of 1912, 1915, or 1918.
!!!AGN: monody
!!!AST: Mandan and Hidatsa Men's Foolish Dog Society
!!!AMT: irregular
!!!RWG: Transcribed pitches, durations, and meters are only approximate.
!! Drum not recorded.
**kern
*ICvox
*Imale
*clefF4
*k[b-e-]
*M2/4
*MM104
=1-
8.g
16g
8.g
16d
=2
16g
8.d
(12d
12c
12B-)
=3
(12G
12G
12G)
4G
=4
8.g
16g
8.g
16d
*M3/4
=5
16g
8.d
(12d
12c
12B-)
4G
*M2/4
=6
8d
8d
8.d
16c#
*M3/4
=7
8.d
16d
(12d
12c
12B-)
16B-
8.G
*M2/4
=8
4F
4D
=9
8G;
8G;
16A
8.G
=10
8.F
16F
8.D
16D
=11
4.D
8D
*M3/4
=12
2.D
*M2/4
=13
(12d
12d
12d)
8.d
16c#
*M3/4
=14
16d
8.d
(12d
12c
12B-)
8G
16d
16d
*M2/4
=15
8.d
16d
(16d
16c#)
8d
*M3/4
=16
16d
8.d;
(12d
12c)
12B-
16B-
8.G
*M2/4
=17
8.F
16F
4D
=18
16G
16G
16G
16G
16A
8.G
=19
16F
8.F
8.D
16D
=20
2D
==
*-
!!!CNT: Hidatsa
!!!TXO: Hidatsa
!!!OCY: United States
!!!OCL: Frances Densmore
!!!YOR: Frances Densmore, "Mandan and Hidatsa Music",
!!!YOR: Bulletin 80, page 132, No. 64
!!!PPR: Smithsonian Institution, Bureau of American Ethnology
!!!PPR: Government Printing Office
!!!PDT: 1923
!!!PPP: Washington, DC, United States of America
!!!YEC: Electronic Copyright 2000 David Huron
!!!YER: August 2000
!!!YEN: United States of America
!!!ENC: David Huron
!!!RDT: August 17, 2000
!!!EEV: Release 1.0
!!!AIN: tom, vox
